static/logos/postman-glyph-color.svg

<svg width="50" height="50" viewBox="0 0 50 50" fill="none" xmlns="http://www.w3.org/2000/svg">
<g clip-path="url(#clip0_1_1514)">
<path d="M28.1842 0.20364C23.2799 -0.426166 18.2989 0.412528 13.8711 2.61367C9.44343 4.81482 5.76788 8.27951 3.3093 12.5697C0.850759 16.8599 -0.280378 21.7826 0.0589497 26.7156C0.398276 31.6485 2.19283 36.3703 5.21567 40.2831C8.23849 44.1965 12.3538 47.1253 17.0413 48.6994C21.7286 50.2735 26.7775 50.4221 31.5494 49.1267C36.3215 47.8314 40.6023 45.15 43.8503 41.4218C47.0983 37.6933 49.1674 33.0858 49.7968 28.1811C50.6404 21.6051 48.8372 14.9634 44.7843 9.71671C40.7311 4.47 34.7602 1.0481 28.1842 0.20364Z" fill="#FF6C37"/>
<path d="M18.0732 26.5798C18.0829 26.5997 18.0993 26.6155 18.1193 26.6245C18.1393 26.6337 18.1619 26.6356 18.1832 26.6298L22.1832 25.7673L20.5007 24.0623L18.1032 26.4598C18.0843 26.4726 18.0709 26.4919 18.0652 26.514C18.0598 26.5362 18.0626 26.5597 18.0732 26.5798Z" fill="white"/>
<path d="M36.8019 9.40511C36.2444 9.40566 35.6944 9.53127 35.1917 9.77261C34.6891 10.014 34.2473 10.365 33.8984 10.7997C33.5496 11.2345 33.3028 11.742 33.1761 12.2848C33.049 12.8276 33.0455 13.392 33.1659 13.9363C33.2862 14.4807 33.5269 14.9911 33.8702 15.4301C34.2138 15.869 34.6516 16.2253 35.1511 16.4728C35.6508 16.7203 36.1993 16.8524 36.7569 16.8598C37.3141 16.8671 37.8659 16.7493 38.372 16.5151L35.8368 13.9801C35.8077 13.9511 35.7848 13.9166 35.7691 13.8786C35.7531 13.8407 35.7449 13.8 35.7449 13.7589C35.7449 13.7178 35.7531 13.677 35.7691 13.6391C35.7848 13.6011 35.8077 13.5666 35.8368 13.5376L39.1493 10.2276C38.4842 9.69273 37.6554 9.40238 36.8019 9.40511Z" fill="white"/>
<path d="M39.6049 10.6576L36.5 13.7501L38.9349 16.1851C39.1142 16.0592 39.2817 15.9168 39.4349 15.7601C40.1023 15.0882 40.4907 14.1887 40.5224 13.2422C40.5538 12.2958 40.2262 11.3724 39.6049 10.6576Z" fill="white"/>
<path d="M33.3939 16.3651H33.339C33.2744 16.3645 33.2099 16.3704 33.1465 16.3826H33.1241C33.0544 16.3976 32.9861 16.4176 32.9189 16.4426L32.8666 16.4676C32.8163 16.4886 32.7678 16.5136 32.7215 16.5426L32.6666 16.5776C32.6061 16.6194 32.5491 16.6662 32.4965 16.7176L23.2891 25.9275L24.4291 27.0675L34.1791 18.5101C34.2343 18.4617 34.2843 18.4081 34.3291 18.3501L34.3715 18.2951C34.405 18.2462 34.4349 18.1953 34.4616 18.1426C34.4765 18.1126 34.489 18.0826 34.5015 18.0526C34.5183 18.0126 34.5326 17.9717 34.5439 17.9301C34.5439 17.9001 34.5616 17.8701 34.5689 17.8401C34.5814 17.7781 34.5898 17.7156 34.5939 17.6526V17.5701C34.5939 17.5251 34.5939 17.4801 34.5939 17.4351C34.5939 17.3901 34.5939 17.3751 34.5814 17.3451C34.5352 17.1092 34.4201 16.8921 34.2506 16.7217C34.0811 16.5514 33.8648 16.435 33.6291 16.3876H33.5814C33.5198 16.3756 33.457 16.3681 33.3939 16.3651Z" fill="white"/>
<path d="M20.9297 23.62L22.8197 25.4999L32.0522 16.2674C32.3528 15.9737 32.7443 15.7912 33.1621 15.7499C31.5298 14.4999 29.7496 14.8274 20.9297 23.62Z" fill="white"/>
<path d="M34.6984 18.8701L34.5859 18.9801L24.8359 27.5351L26.4934 29.1901C30.6033 25.3026 34.251 21.6001 34.6984 18.8701Z" fill="white"/>
<path d="M10.3814 38.9125C10.3865 38.9302 10.3969 38.9459 10.4112 38.9576C10.4255 38.9692 10.443 38.9762 10.4614 38.9773L14.7114 39.2698L12.3289 36.8875L10.4014 38.8125C10.3889 38.8256 10.3804 38.8419 10.3768 38.8593C10.3733 38.8773 10.3749 38.8956 10.3814 38.9125Z" fill="white"/>
<path d="M12.7734 36.4451L15.2859 38.9576C15.3158 38.9893 15.3557 39.0099 15.3989 39.016C15.4422 39.0218 15.4861 39.0125 15.5234 38.9898C15.5624 38.9706 15.5934 38.9384 15.6112 38.8988C15.629 38.859 15.6324 38.8142 15.6209 38.7724L15.1984 36.9674C15.1711 36.8503 15.1835 36.7276 15.2338 36.6186C15.284 36.5096 15.3693 36.4204 15.4759 36.3648C19.8809 34.1576 23.4334 31.8849 26.0409 29.6148L24.2909 27.865L20.5409 28.6725L12.7734 36.4451Z" fill="white"/>
<path d="M23.7545 27.335L22.8145 26.395L21.5145 27.6925C21.5052 27.7038 21.5 27.718 21.5 27.7325C21.5 27.7472 21.5052 27.7613 21.5145 27.7725C21.5205 27.7858 21.5313 27.7966 21.5445 27.8025C21.558 27.8085 21.573 27.8094 21.587 27.805L23.7545 27.335Z" fill="white"/>
<path d="M39.6916 12.6726C39.6788 12.6333 39.6576 12.5971 39.6297 12.5666C39.6018 12.5361 39.5677 12.5119 39.5297 12.4957C39.4916 12.4795 39.4506 12.4716 39.409 12.4725C39.3677 12.4735 39.327 12.4834 39.2898 12.5013C39.2526 12.5193 39.2195 12.5451 39.193 12.5769C39.1666 12.6087 39.1471 12.6458 39.1363 12.6857C39.1253 12.7256 39.123 12.7674 39.1297 12.8083C39.1361 12.8491 39.1512 12.8881 39.1741 12.9226C39.2489 13.073 39.2785 13.2417 39.2593 13.4085C39.2404 13.5753 39.1733 13.733 39.0666 13.8626C39.0317 13.9049 39.0093 13.9564 39.0023 14.0109C38.9954 14.0654 39.0041 14.1208 39.0273 14.1706C39.0506 14.2204 39.0878 14.2625 39.134 14.2921C39.1802 14.3217 39.2343 14.3374 39.289 14.3376C39.3317 14.3372 39.3736 14.3275 39.4119 14.3094C39.4503 14.2913 39.4843 14.2651 39.5116 14.2326C39.6887 14.0175 39.7997 13.7558 39.8317 13.4791C39.8634 13.2024 39.8148 12.9224 39.6916 12.6726Z" fill="#FF6C37"/>
</g>
<defs>
<clipPath id="clip0_1_1514">
<rect width="50" height="50" fill="white"/>
</clipPath>
</defs>
</svg>

<svg xmlns="http://www.w3.org/2000/svg" width="64" height="64" fill="none" viewBox="0 0 50 50"><g clip-path="url(#a)"><path fill="#FF6C37" d="M28.184.204a25 25 0 1 0-6.368 49.593A25 25 0 0 0 28.184.204Z"/><path fill="#fff" d="M18.073 26.58a.094.094 0 0 0 .11.05l4-.863-1.682-1.705-2.398 2.398a.093.093 0 0 0-.038.054.094.094 0 0 0 .008.066ZM36.802 9.405a3.728 3.728 0 1 0 1.57 7.11l-2.535-2.535a.31.31 0 0 1-.068-.34.31.31 0 0 1 .068-.102l3.312-3.31a3.727 3.727 0 0 0-2.347-.823Z"/><path fill="#fff" d="M39.605 10.658 36.5 13.75l2.435 2.435a3.75 3.75 0 0 0 .67-5.527ZM33.394 16.365h-.055a.971.971 0 0 0-.192.018h-.023c-.07.015-.138.035-.205.06l-.052.025a.996.996 0 0 0-.145.075l-.055.035c-.06.041-.118.088-.17.14l-9.208 9.21 1.14 1.14 9.75-8.558c.055-.048.105-.102.15-.16l.042-.055c.034-.049.064-.1.09-.152.016-.03.028-.06.04-.09a.98.98 0 0 0 .043-.123c0-.03.018-.06.025-.09.012-.062.02-.124.025-.187V17.435c0-.045 0-.06-.013-.09a1.215 1.215 0 0 0-.952-.957h-.048a1.306 1.306 0 0 0-.187-.023ZM20.93 23.62l1.89 1.88 9.232-9.233c.3-.293.692-.476 1.11-.517-1.632-1.25-3.412-.923-12.232 7.87ZM34.698 18.87l-.112.11-9.75 8.555 1.657 1.655c4.11-3.887 7.758-7.59 8.205-10.32ZM10.381 38.913a.09.09 0 0 0 .08.064l4.25.293-2.382-2.383-1.928 1.925a.096.096 0 0 0-.024.047.096.096 0 0 0 .004.053ZM12.773 36.445l2.513 2.513a.19.19 0 0 0 .238.032.187.187 0 0 0 .097-.218l-.423-1.805a.54.54 0 0 1 .278-.602c4.405-2.207 7.957-4.48 10.565-6.75l-1.75-1.75-3.75.808-7.768 7.772ZM23.755 27.335l-.94-.94-1.3 1.297a.063.063 0 0 0 0 .08.06.06 0 0 0 .072.033l2.168-.47Z"/><path fill="#FF6C37" d="M39.692 12.673a.29.29 0 1 0-.518.25.868.868 0 0 1-.107.94.292.292 0 0 0 .067.43.29.29 0 0 0 .378-.06 1.447 1.447 0 0 0 .18-1.56Z"/></g><defs><clipPath id="a"><path fill="#fff" d="M0 0h50v50H0z"/></clipPath></defs></svg>
